X: 6138
T: Captain Menzies
R: reel
M: 4/4
K: Aminor
A^GAc BdcB|cde^f gdB^G|A^GAB cedc|BEcB BAA2|
A^GAc BdcB|cde^f gdB^G|AcBd cedf|ecdB BAA^g||
aecA ECA,C|B,G,DG, B,G, G,/G,/G,|aecA ECA,C|B,CDB, CA, A,/A,/A,|
aecA ECA,C|B,G,DG, B,G,G,B,|A,CB,D CEDf|ecdB BAA2||


